communes/2111.svg

<?xml version="1.0" encoding="UTF-8" standalone="no"?>
<svg
   xmlns:dc="http://purl.org/dc/elements/1.1/"
   xmlns:cc="http://creativecommons.org/ns#"
   xmlns:rdf="http://www.w3.org/1999/02/22-rdf-syntax-ns#"
   xmlns:svg="http://www.w3.org/2000/svg"
   xmlns="http://www.w3.org/2000/svg"
   xmlns:xlink="http://www.w3.org/1999/xlink"
   xmlns:sodipodi="http://sodipodi.sourceforge.net/DTD/sodipodi-0.dtd"
   xmlns:inkscape="http://www.inkscape.org/namespaces/inkscape"
   version="1.0"
   width="603"
   height="763"
   id="svg20"
   sodipodi:docname="2111.svg">
  <sodipodi:namedview
     pagecolor="#ffffff"
     bordercolor="#666666"
     borderopacity="1"
     objecttolerance="10"
     gridtolerance="10"
     guidetolerance="10"
     inkscape:pageopacity="0"
     inkscape:pageshadow="2"
     inkscape:window-width="640"
     inkscape:window-height="480"
     id="namedview20" />
  <desc
     id="desc22">Coat of Arms of Canton of Freiburg (Fribourg)</desc>
  <metadata
     id="metadata31">
    <rdf:RDF>
      <cc:Work
         rdf:about="">
        <dc:format>image/svg+xml</dc:format>
        <dc:type
           rdf:resource="http://purl.org/dc/dcmitype/StillImage" />
        <dc:date>07-AUG-2006</dc:date>
        <dc:creator>
          <cc:Agent>
            <dc:title>Jérôme BLUM (wagner51)</dc:title>
          </cc:Agent>
        </dc:creator>
        <cc:license
           rdf:resource="http://creativecommons.org/licenses/GPL/2.0/" />
        <dc:coverage />
        <dc:description>Gabarit pour le Projet:Blasons de WIkipédia</dc:description>
        <dc:subject>
          <rdf:Bag>
            <rdf:li>blason suisse modèle gabarit projet blasons</rdf:li>
          </rdf:Bag>
        </dc:subject>
        <dc:language>fr</dc:language>
        <dc:title />
      </cc:Work>
      <cc:License
         rdf:about="http://creativecommons.org/licenses/GPL/2.0/">
        <cc:permits
           rdf:resource="http://web.resource.org/cc/Reproduction" />
        <cc:permits
           rdf:resource="http://web.resource.org/cc/Distribution" />
        <cc:requires
           rdf:resource="http://web.resource.org/cc/Notice" />
        <cc:permits
           rdf:resource="http://web.resource.org/cc/DerivativeWorks" />
        <cc:requires
           rdf:resource="http://web.resource.org/cc/ShareAlike" />
        <cc:requires
           rdf:resource="http://web.resource.org/cc/SourceCode" />
      </cc:License>
    </rdf:RDF>
  </metadata>
  <defs
     id="defs29">
    <linearGradient
       id="linearGradient2893">
      <stop
         id="stop2895"
         style="stop-color:#ffffff;stop-opacity:0.3137255"
         offset="0" />
      <stop
         id="stop2897"
         style="stop-color:#ffffff;stop-opacity:0.25098041"
         offset="0.19" />
      <stop
         id="stop2901"
         style="stop-color:#6b6b6b;stop-opacity:0.1254902"
         offset="0.60000002" />
      <stop
         id="stop2899"
         style="stop-color:#000000;stop-opacity:0.1254902"
         offset="1" />
    </linearGradient>
    <radialGradient
       cx="858.04236"
       cy="579.93323"
       r="300"
       fx="858.04236"
       fy="579.93323"
       id="radialGradient3236"
       xlink:href="#linearGradient2893"
       gradientUnits="userSpaceOnUse"
       gradientTransform="matrix(1.215027,0,0,1.266667,-839.1924,-490.4894)" />
  </defs>
  <g
     id="layer1"
     style="display:inline">
    <path
       d="m 1.5,1.49998 0,458.86792 C 1.5,626.6785 135.81456,761.5 301.49999,761.5 467.18543,761.5 601.5,626.6785 601.5,460.3679 l 0,-458.86792 -600,0 z"
       id="path1899"
       style="fill:#e20909;fill-opacity:1" />
  </g>
  <g
     id="layer2"
     style="display:inline">
    <path
       d="M 1.5,1 1.5,99.125 204.59375,302.21875 4.2329185,501.87248 C 6.9616084,537.67085 29.165907,608.97768 60.514827,637.11017 L 300,397.625 542.3136,641.35281 c 43.36974,-64.90204 52.13901,-107.9246 55.5748,-136.65191 L 395.40625,302.21875 601,99.125 601,1 506.28125,1 300,206.8125 93.71875,1 z"
       id="path11627"
       style="fill:#ffffff;fill-opacity:1;fill-rule:evenodd;stroke:#000000;stroke-width:3;stroke-linecap:butt;stroke-linejoin:miter;stroke-miterlimit:4;stroke-opacity:1;stroke-dasharray:none;display:inline" />
  </g>
  <g
     id="layer3"
     style="display:inline">
    <path
       d="m 1.5,1.5 0,458.8679 C 1.5,626.67854 135.81454,761.5 301.49993,761.5 467.1854,761.5 601.5,626.67854 601.5,460.3679 L 601.5,1.5 1.5,1.5 z"
       id="path2346"
       style="fill:url(#radialGradient3236);fill-opacity:1" />
  </g>
  <g
     id="layer4"
     style="display:inline">
    <path
       d="m 1.5,1.5 0,458.86794 C 1.5,626.67854 135.81454,761.5 301.49993,761.5 467.1854,761.5 601.5,626.67854 601.5,460.36794 L 601.5,1.5 1.5,1.5 z"
       id="path3239"
       style="fill:none;stroke:#000000;stroke-width:3;stroke-miterlimit:4;stroke-opacity:1;stroke-dasharray:none" />
  </g>
</svg>

<?xml version="1.0" encoding="UTF-8"?>
<svg version="1.0" viewBox="0 0 603 763" xmlns="http://www.w3.org/2000/svg" xmlns:cc="http://creativecommons.org/ns#" xmlns:dc="http://purl.org/dc/elements/1.1/" xmlns:rdf="http://www.w3.org/1999/02/22-rdf-syntax-ns#" xmlns:xlink="http://www.w3.org/1999/xlink">
<desc>Coat of Arms of Canton of Freiburg (Fribourg)</desc>
<metadata>
<rdf:RDF>
<cc:Work rdf:about="">
<dc:format>image/svg+xml</dc:format>
<dc:type rdf:resource="http://purl.org/dc/dcmitype/StillImage"/>
<dc:date>07-AUG-2006</dc:date>
<dc:creator>
<cc:Agent>
<dc:title>Jérôme BLUM (wagner51)</dc:title>
</cc:Agent>
</dc:creator>
<cc:license rdf:resource="http://creativecommons.org/licenses/GPL/2.0/"/>
<dc:coverage/>
<dc:description>Gabarit pour le Projet:Blasons de WIkipédia</dc:description>
<dc:subject>
<rdf:Bag>
<rdf:li>blason suisse modèle gabarit projet blasons</rdf:li>
</rdf:Bag>
</dc:subject>
<dc:language>fr</dc:language>
<dc:title/>
</cc:Work>
<cc:License rdf:about="http://creativecommons.org/licenses/GPL/2.0/">
<cc:permits rdf:resource="http://web.resource.org/cc/Reproduction"/>
<cc:permits rdf:resource="http://web.resource.org/cc/Distribution"/>
<cc:requires rdf:resource="http://web.resource.org/cc/Notice"/>
<cc:permits rdf:resource="http://web.resource.org/cc/DerivativeWorks"/>
<cc:requires rdf:resource="http://web.resource.org/cc/ShareAlike"/>
<cc:requires rdf:resource="http://web.resource.org/cc/SourceCode"/>
</cc:License>
</rdf:RDF>
</metadata>
<defs>
<radialGradient id="a" cx="858.04" cy="579.93" r="300" gradientTransform="matrix(1.215 0 0 1.2667 -839.19 -490.49)" gradientUnits="userSpaceOnUse">
<stop stop-color="#fff" stop-opacity=".31373" offset="0"/>
<stop stop-color="#fff" stop-opacity=".25098" offset=".19"/>
<stop stop-color="#6b6b6b" stop-opacity=".12549" offset=".6"/>
<stop stop-opacity=".12549" offset="1"/>
</radialGradient>
</defs>
<g>
<path d="m1.5 1.5v458.87c0 166.31 134.31 301.13 300 301.13 165.69 0 300-134.82 300-301.13v-458.87h-600z" fill="#e20909"/>
<path d="m1.5 1v98.125l203.09 203.09-200.36 199.65c2.7287 35.798 24.933 107.11 56.282 135.24l239.49-239.49 242.31 243.73c43.37-64.902 52.139-107.92 55.575-136.65l-202.48-202.48 205.59-203.09v-98.125h-94.719l-206.28 205.81-206.28-205.81z" fill="#fff" fill-rule="evenodd" stroke="#000" stroke-width="3"/>
<path d="m1.5 1.5v458.87c0 166.31 134.31 301.13 300 301.13 165.69 0 300-134.82 300-301.13v-458.87h-600z" fill="url(#a)"/>
<path d="m1.5 1.5v458.87c0 166.31 134.31 301.13 300 301.13 165.69 0 300-134.82 300-301.13v-458.87h-600z" fill="none" stroke="#000" stroke-width="3"/>
</g>
</svg>
